src/main/content/img/Footer_GitCat_Hover.svg

<?xml version="1.0" encoding="UTF-8"?>
<svg width="45px" height="45px" viewBox="0 0 45 45" version="1.1" xmlns="http://www.w3.org/2000/svg" xmlns:xlink="http://www.w3.org/1999/xlink">
    <!-- Generator: Sketch 50.2 (55047) - http://www.bohemiancoding.com/sketch -->
    <title>Group 3</title>
    <desc>Created with Sketch.</desc>
    <defs></defs>
    <g id="V2_Navigation" stroke="none" stroke-width="1" fill="none" fill-rule="evenodd">
        <g id="Final_tablet_Footer--SuggestedHoverState" transform="translate(-466.000000, -63.000000)">
            <g id="Group-3" transform="translate(467.000000, 64.000000)">
                <circle id="Oval-6" stroke="#5E6B8D" fill="#5D6A8E" cx="21.5" cy="21.5" r="21.5"></circle>
                <path d="M26.4058618,35.5143988 L22.7404056,35.5143988 L19.07192,35.5143988 C19.07192,35.5143988 19.0825226,33.3378449 19.07192,31.8459133 C14.0516082,32.9273744 12.6505557,29.0945492 12.6505557,29.0945492 C11.7341916,27.2595491 10.8155556,26.343185 10.8155556,26.343185 C8.9805555,25.2541507 10.8155556,25.4268209 10.8155556,25.4268209 C12.6505557,25.4268209 13.5669197,27.261821 13.5669197,27.261821 C15.1769941,29.9950094 18.0411998,29.5550032 19.0696481,29.0968211 C19.0696481,28.1804571 19.4710307,26.7930365 19.9860121,26.345457 C15.9797593,25.8948482 12.6452544,23.5940928 12.6452544,19.0077286 C12.6452544,14.4213643 13.5661624,13.5050003 14.4832838,12.5863642 C14.2984963,12.1342408 13.5298108,10.4620657 14.5113049,8 C14.5113049,8 16.3137399,8 18.14874,10.7513642 C19.0575308,9.84257335 21.8172256,9.83500009 22.7351043,9.83500009 C23.6499537,9.83500009 26.4111631,9.84257335 27.3199539,10.7513642 C29.154954,8 30.961933,8 30.961933,8 C31.9434271,10.4620657 31.1754989,12.1342408 30.9899541,12.5863642 C31.9063181,13.5027283 32.8249542,14.4213643 32.8249542,19.0077286 C32.8249542,23.5940928 29.4949932,25.8933336 25.4872258,26.345457 C26.0037219,26.7930365 26.4035898,28.3713031 26.4035898,29.0968211 L26.4058618,35.5143988 Z" id="Cat_1_-Copy" fill="#F7F8F8" fill-rule="nonzero"></path>
            </g>
        </g>
    </g>
</svg>

<svg width="45" height="45" xmlns="http://www.w3.org/2000/svg"><g transform="translate(1 1)" fill="none" fill-rule="evenodd"><circle stroke="#5E6B8D" fill="#5D6A8E" cx="21.5" cy="21.5" r="21.5"/><path d="M26.406 35.514h-7.334s.01-2.176 0-3.668c-5.02 1.081-6.421-2.751-6.421-2.751-.917-1.835-1.835-2.752-1.835-2.752-1.835-1.089 0-.916 0-.916 1.835 0 2.75 1.835 2.75 1.835 1.611 2.733 4.475 2.293 5.504 1.835 0-.917.401-2.304.916-2.752-4.006-.45-7.34-2.75-7.34-7.337s.92-5.503 1.837-6.422c-.185-.452-.953-2.124.028-4.586 0 0 1.803 0 3.638 2.751.909-.908 3.668-.916 4.586-.916.915 0 3.676.008 4.585.916C29.155 8 30.962 8 30.962 8c.981 2.462.213 4.134.028 4.586.916.917 1.835 1.835 1.835 6.422 0 4.586-3.33 6.885-7.338 7.337.517.448.917 2.026.917 2.752l.002 6.417z" fill="#F7F8F8" fill-rule="nonzero"/></g></svg>
